X:113
T:Tommy People's
M:4/4
L:1/8
R:reel
D:Altan: Best Of
D:Nicolas Buckmelter: Mountain Eire
K:D
|:B3c dBAF|B2Bc dfec|B3c dcdB|1 ABde fded:|2 ABde fdec|
|:dfaf bfaf|dfaf g2fg|afge dedB|1 ABde fdec:|2 ABde fded|
